Pods/ProtonCore-UIFoundations/libraries/UIFoundations/Sources/Assets.xcassets/Images/IconSet/ic-brand-proton-drive.imageset/ic-brand-proton-drive.svg

<svg width="24" height="24" viewBox="0 0 24 24" fill="none" xmlns="http://www.w3.org/2000/svg">
<path fill-rule="evenodd" clip-rule="evenodd" d="M4.51434 4.50586C3.73823 4.50586 3.09971 5.09531 3.02223 5.85107H5.19965C6.11879 5.85107 6.99946 6.22004 7.64412 6.87521L7.69188 6.92374C8.05456 7.29235 8.55004 7.49993 9.06715 7.49993H12.8118H16.4997C17.3281 7.49993 17.9997 8.1715 17.9997 8.99993V19.4944H19.4953C20.3237 19.4944 20.9953 18.8228 20.9953 17.9944V7.56804C20.9953 6.73961 20.3237 6.06804 19.4953 6.06804H10.3772C9.81422 6.06804 9.26196 5.91448 8.77982 5.6239L7.30444 4.73471C7.05602 4.58498 6.77145 4.50586 6.4814 4.50586H4.51434ZM1.51434 6.00355C1.51562 4.3476 2.85839 3.00586 4.51434 3.00586H6.4814C7.04432 3.00586 7.59659 3.15942 8.07872 3.44999L9.5541 4.33919C9.80253 4.48892 10.0871 4.56804 10.3772 4.56804H19.4953C21.1521 4.56804 22.4953 5.91118 22.4953 7.56804V17.9944C22.4953 19.6513 21.1521 20.9944 19.4953 20.9944H4.50513C2.84737 20.9944 1.50385 19.6499 1.50513 17.9921L1.51434 6.00355Z" fill="#0C0C14"/>
</svg>

<svg xmlns="http://www.w3.org/2000/svg" width="24" height="24" viewBox="0 0 24 24">
  <g class="ic-brand-proton-drive">
    <path fill-rule="evenodd" d="M4.513 4.506A1.5 1.5 0 0 0 3.021 5.85h2.177c.92 0 1.8.369 2.445 1.024l.048.049a1.93 1.93 0 0 0 1.375.576h7.433a1.5 1.5 0 0 1 1.5 1.5v10.494h1.495a1.5 1.5 0 0 0 1.5-1.5V7.568a1.5 1.5 0 0 0-1.5-1.5h-9.118a3.094 3.094 0 0 1-1.597-.444l-1.476-.89a1.594 1.594 0 0 0-.823-.228H4.513Zm-3 1.498a3 3 0 0 1 3-2.998H6.48c.563 0 1.115.153 1.598.444l1.475.89a1.6 1.6 0 0 0 .823.228h9.118a3 3 0 0 1 3 3v10.426a3 3 0 0 1-3 3H4.504a3 3 0 0 1-3-3.002l.01-11.988Z" class="Icon"/>
  </g>
</svg>
